docs/assets/images/ai_logo_black_small.svg

<?xml version="1.0" encoding="utf-8"?>
<svg viewBox="0 0 500 500" xmlns="http://www.w3.org/2000/svg">
  <g class="layer" transform="matrix(5.5555548667907715, 0, 0, 5.5555548667907715, -55.55554962158203, -55.55554962158203)">
    <title>Layer 1</title>
    <g fill="#ffffff" id="g878" stroke="#000000" stroke-miterlimit="4" stroke-width="0.79">
      <g transform="matrix(0.98, 0, 0, 0.978263, 1.1, 1.117226)" style="">
        <path d="M 82 25.001 L 82 40 L 100 25.001 L 100 10 L 82 25.001 Z" fill="#000000" id="path30" style="stroke-linecap: square; stroke-width: 0.9px; paint-order: fill;"/>
        <path d="M 82 48 L 82 100 L 100 100.16 L 100 33 L 82 48 Z" fill="#000000" id="path30" style="stroke-linecap: square; stroke-width: 0.9px; paint-order: fill;"/>
        <path d="M 76 30 L 10 85.001 L 10 100 L 34 80 L 76 80 L 76 70 L 46 70 L 76 45 L 76 30 Z" fill="#000000" id="path32" style="stroke-linecap: square; paint-order: fill; stroke-width: 0.919182px;"/>
      </g>
    </g>
  </g>
</svg>

<?xml version="1.0"?>
<svg width="110" height="110" xmlns="http://www.w3.org/2000/svg" version="1.1" viewBox="0 0 110 110">
 <metadata id="metadata5"></metadata>
 <g class="layer">
  <title>Layer 1</title>
  <!-- <rect fill="#ffffff" height="110" id="svg_2" rx="10" ry="10" stroke="#ffffff" stroke-width="0" width="110" x="0" y="0"/> -->
  <g fill="#ffffff" id="g878" stroke="#000000" stroke-miterlimit="4" stroke-width="0.79">
   <path d="m82,25l0,15l18,-15l0,-15l-18,15zm0,23l0,52l18,0.16l0,-67.16l-18,15z" fill="#000000" id="path30" stroke="#ffffff" stroke-width="0"/>
   <path d="m76,30l-66,55l0,15l24,-20l42,0l0,-10l-30,0l30,-25l0,-15z" fill="#000000" id="path32" stroke="#000000" stroke-width="0"/>
  </g>
 </g>
</svg>
